X:21139 
T:MORNING IN SUMMER, A 
B:DMI.0403
Z:Nordberg/Black
R:jig
%Q:1/4=160
M:6/8
L:1/8
K:G
"D modal"
A|A2D D2E|F2E F2D|G2F G2A|d2^c A2G|
A2D D2E|F2E F2D|D2G F2G|A2G G2:|
G|F2G A2B|c3 AB^c|d2^c d2e|f2d d2e|
f2e f2d|c2A A2F|G2F G2A|1 "thru"d2^c A2:|
[2 "final"GFE D3|]

%%%

